X: 35957
T: Sarah MacIntyre's
R: jig
M: 6/8
K: Dmajor
AA/A/A dcA|EFF AFE|AA/A/A d2c|def aef|
AA/A/A dcA|EFF AFE|ddd c2A|BFF AFE:|
|:GFF EEE|DFA BFA|FAA dcA|c/c/ce ede|
fff gfd|a2g zfe|ddd c2A|BFF AFE:|

